public/images/poses-lg/Tree.svg

<svg width="800" height="800" fill="none" xmlns="http://www.w3.org/2000/svg"><path d="m453.652 410.355 52.542-19.107s-11.941-26.271-9.553-45.378 14.33-62.097 14.33-62.097-11.942-11.941-11.942-31.048c0-19.106 4.777-31.047 4.777-31.047s-23.884 0-33.438-14.33c-9.553-14.33 0-52.544 0-52.544h-33.437v4.777s2.388 23.883 0 40.602c-2.026 14.185-19.106 21.495-28.66 21.495 0 0 4.777 16.717 4.777 33.436s-11.943 28.66-11.943 28.66 11.943 47.767 11.943 62.097c0 14.33-11.943 45.378-11.943 45.378l26.271 26.271 26.276-7.165Z" fill="#fff" stroke="#000" stroke-width="5" stroke-miterlimit="10"/><path d="m453.652 410.355 52.542-19.107s-11.941-26.271-9.553-45.378 14.33-62.097 14.33-62.097-11.942-11.941-11.942-31.048c0-19.106 4.777-31.047 4.777-31.047s-23.884 0-33.438-14.33c-9.553-14.33 0-52.544 0-52.544h-33.437v4.777s2.388 23.883 0 40.602c-2.026 14.185-19.106 21.495-28.66 21.495 0 0 4.777 16.717 4.777 33.436s-11.943 28.66-11.943 28.66 11.943 47.767 11.943 62.097c0 14.33-11.943 45.378-11.943 45.378l26.271 26.271 26.276-7.165Z" stroke="#000" stroke-width="5" stroke-miterlimit="10"/><path d="M408.273 221.677c-11.942 0-23.884 19.107-31.048 54.931-7.552 37.766-16.718 76.427-9.555 90.757 7.165 14.33 85.98-52.542 88.367-62.096v-35.824c0-4.777 0-9.553-2.387-9.553-4.776 0-5.293 12.128-7.164 21.495-2.389 11.941-2.389 16.718-4.777 21.495-4.532 9.065-42.99 26.271-50.153 31.047l9.552-50.154a36.937 36.937 0 0 0 17.236-34.393 36.791 36.791 0 0 0-3.049-11.9l-7.022-15.805Z" fill="#fff" stroke="#000" stroke-width="5" stroke-miterlimit="10"/><path d="M408.273 221.677c-11.942 0-23.884 19.107-31.048 54.931-7.552 37.766-16.718 76.427-9.555 90.757 7.165 14.33 85.98-52.542 88.367-62.096v-35.824c0-4.777 0-9.553-2.387-9.553-4.776 0-5.293 12.128-7.164 21.495-2.389 11.941-2.389 16.718-4.777 21.495-4.532 9.065-42.99 26.271-50.153 31.047l9.552-50.154a36.937 36.937 0 0 0 17.236-34.393 36.791 36.791 0 0 0-3.049-11.9l-7.022-15.805Z" stroke="#000" stroke-width="5" stroke-miterlimit="10"/><path d="M503.806 221.677c11.942 0 23.882 19.107 31.049 54.931 7.549 37.766 16.718 76.427 9.553 90.757-7.164 14.33-85.98-52.542-88.368-62.096v-35.824c0-4.777 0-9.553 2.388-9.553 4.777 0 5.294 12.128 7.164 21.495 2.389 11.941 2.389 16.718 4.776 21.495 4.533 9.065 42.99 26.271 50.157 31.047l-9.555-50.154a36.936 36.936 0 0 1-17.232-34.393 36.787 36.787 0 0 1 3.046-11.9l7.022-15.805Z" fill="#fff" stroke="#000" stroke-width="5" stroke-miterlimit="10"/><path d="M503.806 221.677c11.942 0 23.882 19.107 31.049 54.931 7.549 37.766 16.718 76.427 9.553 90.757-7.164 14.33-85.98-52.542-88.368-62.096v-35.824c0-4.777 0-9.553 2.388-9.553 4.777 0 5.294 12.128 7.164 21.495 2.389 11.941 2.389 16.718 4.776 21.495 4.533 9.065 42.99 26.271 50.157 31.047l-9.555-50.154a36.936 36.936 0 0 1-17.232-34.393 36.787 36.787 0 0 1 3.046-11.9l7.022-15.805Z" stroke="#000" stroke-width="5" stroke-miterlimit="10"/><path d="M510.971 570.372c7.164-42.99 11.943-102.699 7.164-133.745-4.775-31.049-11.943-45.378-11.943-45.378s-29.973 6.915-51.409 7.153c-23.702-.238-53.677-7.153-53.677-7.153S396.33 405.579 382 417.52c-17.307 14.424-69.261 33.436-95.533 57.319-26.271 23.882-38.213 52.543-33.436 59.707 4.776 7.164 11.941 9.554 42.989 7.164 31.049-2.387 97.921-28.66 112.251-28.66 14.33 0 23.882 9.554 26.27 19.106 2.388 9.554 7.165 35.825 11.943 42.989 4.775 7.165 9.554 2.389 9.554-4.775 0-2.302 0-10.042-.08-19.951l.08 1.244s2.388 80.802 2.388 99.909 2.388 95.532 2.388 107.475c0 11.942 0 16.718-2.388 26.27-2.388 9.554 9.554 9.554 19.106 9.554 9.555 0 16.719-4.776 14.33-11.943-2.388-7.163-7.164-28.66-7.164-38.212 0-9.554 4.776-47.768 7.164-76.426 2.391-28.656 14.717-71.577 19.109-97.918Z" fill="#fff" stroke="#000" stroke-width="5" stroke-miterlimit="10"/><path d="M510.971 570.372c7.164-42.99 11.943-102.699 7.164-133.745-4.775-31.049-11.943-45.378-11.943-45.378s-29.973 6.915-51.409 7.153c-23.702-.238-53.677-7.153-53.677-7.153S396.33 405.579 382 417.52c-17.307 14.424-69.261 33.436-95.533 57.319-26.271 23.882-38.213 52.543-33.436 59.707 4.776 7.164 11.941 9.554 42.989 7.164 31.049-2.387 97.921-28.66 112.251-28.66 14.33 0 23.882 9.554 26.27 19.106 2.388 9.554 7.165 35.825 11.943 42.989 4.775 7.165 9.554 2.389 9.554-4.775 0-2.302 0-10.042-.08-19.951l.08 1.244s2.388 80.802 2.388 99.909 2.388 95.532 2.388 107.475c0 11.942 0 16.718-2.388 26.27-2.388 9.554 9.554 9.554 19.106 9.554 9.555 0 16.719-4.776 14.33-11.943-2.388-7.163-7.164-28.66-7.164-38.212 0-9.554 4.776-47.768 7.164-76.426 2.391-28.656 14.717-71.577 19.109-97.918Z" stroke="#000" stroke-width="5" stroke-miterlimit="10"/><path d="M305.575 503.5c14.33-11.943 42.99-16.719 69.261-16.719 26.271 0 47.766 0 57.321-2.388 9.553-2.389 17.763-4.49 21.041 0 5.228 7.164 2.84 11.942 2.84 31.049 0 19.106-.057 38.064-.057 38.064M418.167 219.91c13.988 11.321 35.482 11.321 35.482 11.321s21.69 1.243 37.116-11.321" stroke="#000" stroke-width="5" stroke-miterlimit="10"/><path d="M434.15 153.517c-4.296-8.504.037-16.469-1.07-26.889-1.763-16.546 19.003-31.792 37.499-29.861 24.422 2.556 21.49 90.096 7.233 90.936-8.444.499-23.419-7.303-33.893-21.77-3.37-4.65-9.769-12.416-9.769-12.416Z" fill="#fff" stroke="#000" stroke-width="5" stroke-miterlimit="10"/><path d="M434.15 153.517c-4.296-8.504.037-16.469-1.07-26.889-1.763-16.546 19.003-31.792 37.499-29.861 24.422 2.556 21.49 90.096 7.233 90.936-8.444.499-23.419-7.303-33.893-21.77-3.37-4.65-9.769-12.416-9.769-12.416Z" stroke="#000" stroke-width="5" stroke-miterlimit="10"/><path d="M480.345 107.458c-1.047 15.334-13.662 42.565-32.686 36.61-21.388-6.696-13.173 6.678-11.669 10.838 1.504 4.161 11.661 12.374 9.445 13.428-2.214 1.059-29.483-12.618-31.361-34.89-1.882-22.272 7.038-32.324 18.845-38.591 11.802-6.268 30.638-6.342 41.744 1.278 11.112 7.618 5.682 11.327 5.682 11.327Z" fill="#000" stroke="#000" stroke-width="5" stroke-miterlimit="10"/><path d="M460.257 732.387c7.722 2.778 21.306 2.003 25.262 0M410.054 486.474c2.995 5.086 4.168 21.908 0 26.632" stroke="#000" stroke-width="5" stroke-miterlimit="10"/><path d="M455.343 141c-5.544-5.95-2.813-2.69 0-5.214 2.817-2.528 8.289-4.126 11.2-8.51 2.909-4.383-5.87-12.569-5.578-17.84.294-5.271 7.45-8.201 10.063-5.199 2.608 3.005 2.432-1.821-.157-5.408-2.374-3.289-13.879-19.256-36.642-7.676-18.388 9.355-26.257 19.967-23.547 41.094 2.714 21.133 17.485 27.197 7.561 43.773-12.273 20.506-31.76 8.58-47.212 36.296-5.907 10.589-.234 32.986 8.968 44.841 9.88 12.733 28.673 21.603 38.089 21.459 22.665-.339 24.595-9.16 24.595-9.16l-7.44-30.854s11.275-65.064 15.372-78.778c4.098-13.712 4.728-18.824 4.728-18.824Z" fill="#000" stroke="#000" stroke-width="5" stroke-miterlimit="10"/></svg>

<svg width="800" height="800" viewBox="0 0 800 800" fill="none" xmlns="http://www.w3.org/2000/svg">
<path d="M453.652 410.355L506.194 391.248C506.194 391.248 494.253 364.977 496.641 345.87C499.029 326.763 510.971 283.773 510.971 283.773C510.971 283.773 499.029 271.832 499.029 252.725C499.029 233.619 503.806 221.678 503.806 221.678C503.806 221.678 479.922 221.678 470.368 207.348C460.815 193.018 470.368 154.804 470.368 154.804H436.931V159.581C436.931 159.581 439.319 183.464 436.931 200.183C434.905 214.368 417.825 221.678 408.271 221.678C408.271 221.678 413.048 238.395 413.048 255.114C413.048 271.833 401.105 283.774 401.105 283.774C401.105 283.774 413.048 331.541 413.048 345.871C413.048 360.201 401.105 391.249 401.105 391.249L427.376 417.52L453.652 410.355Z" fill="white" stroke="black" stroke-width="5" stroke-miterlimit="10"/>
<path d="M453.652 410.355L506.194 391.248C506.194 391.248 494.253 364.977 496.641 345.87C499.029 326.763 510.971 283.773 510.971 283.773C510.971 283.773 499.029 271.832 499.029 252.725C499.029 233.619 503.806 221.678 503.806 221.678C503.806 221.678 479.922 221.678 470.368 207.348C460.815 193.018 470.368 154.804 470.368 154.804H436.931V159.581C436.931 159.581 439.319 183.464 436.931 200.183C434.905 214.368 417.825 221.678 408.271 221.678C408.271 221.678 413.048 238.395 413.048 255.114C413.048 271.833 401.105 283.774 401.105 283.774C401.105 283.774 413.048 331.541 413.048 345.871C413.048 360.201 401.105 391.249 401.105 391.249L427.376 417.52L453.652 410.355Z" stroke="black" stroke-width="5" stroke-miterlimit="10"/>
<path d="M408.273 221.677C396.331 221.677 384.389 240.784 377.225 276.608C369.673 314.374 360.507 353.035 367.67 367.365C374.835 381.695 453.65 314.823 456.037 305.269V269.445C456.037 264.668 456.037 259.892 453.65 259.892C448.874 259.892 448.357 272.02 446.486 281.387C444.097 293.328 444.097 298.105 441.709 302.882C437.177 311.947 398.719 329.153 391.556 333.929L401.108 283.775C412.842 276.444 419.493 263.168 418.344 249.382C418.001 245.274 416.972 241.249 415.295 237.482L408.273 221.677Z" fill="white" stroke="black" stroke-width="5" stroke-miterlimit="10"/>
<path d="M408.273 221.677C396.331 221.677 384.389 240.784 377.225 276.608C369.673 314.374 360.507 353.035 367.67 367.365C374.835 381.695 453.65 314.823 456.037 305.269V269.445C456.037 264.668 456.037 259.892 453.65 259.892C448.874 259.892 448.357 272.02 446.486 281.387C444.097 293.328 444.097 298.105 441.709 302.882C437.177 311.947 398.719 329.153 391.556 333.929L401.108 283.775C412.842 276.444 419.493 263.168 418.344 249.382C418.001 245.274 416.972 241.249 415.295 237.482L408.273 221.677Z" stroke="black" stroke-width="5" stroke-miterlimit="10"/>
<path d="M503.806 221.677C515.748 221.677 527.688 240.784 534.855 276.608C542.404 314.374 551.573 353.035 544.408 367.365C537.244 381.695 458.428 314.823 456.04 305.269V269.445C456.04 264.668 456.04 259.892 458.428 259.892C463.205 259.892 463.722 272.02 465.592 281.387C467.981 293.328 467.981 298.105 470.368 302.882C474.901 311.947 513.358 329.153 520.525 333.929L510.97 283.775C499.239 276.444 492.587 263.168 493.738 249.382C494.078 245.274 495.11 241.249 496.784 237.482L503.806 221.677Z" fill="white" stroke="black" stroke-width="5" stroke-miterlimit="10"/>
<path d="M503.806 221.677C515.748 221.677 527.688 240.784 534.855 276.608C542.404 314.374 551.573 353.035 544.408 367.365C537.244 381.695 458.428 314.823 456.04 305.269V269.445C456.04 264.668 456.04 259.892 458.428 259.892C463.205 259.892 463.722 272.02 465.592 281.387C467.981 293.328 467.981 298.105 470.368 302.882C474.901 311.947 513.358 329.153 520.525 333.929L510.97 283.775C499.239 276.444 492.587 263.168 493.738 249.382C494.078 245.274 495.11 241.249 496.784 237.482L503.806 221.677Z" stroke="black" stroke-width="5" stroke-miterlimit="10"/>
<path d="M510.971 570.372C518.135 527.382 522.914 467.673 518.135 436.627C513.36 405.578 506.192 391.249 506.192 391.249C506.192 391.249 476.219 398.164 454.783 398.402C431.081 398.164 401.106 391.249 401.106 391.249C401.106 391.249 396.33 405.579 382 417.52C364.693 431.944 312.739 450.956 286.467 474.839C260.196 498.721 248.254 527.382 253.031 534.546C257.807 541.71 264.972 544.1 296.02 541.71C327.069 539.323 393.941 513.05 408.271 513.05C422.601 513.05 432.153 522.604 434.541 532.156C436.929 541.71 441.706 567.981 446.484 575.145C451.259 582.31 456.038 577.534 456.038 570.37C456.038 568.068 456.038 560.328 455.958 550.419L456.038 551.663C456.038 551.663 458.426 632.465 458.426 651.572C458.426 670.679 460.814 747.104 460.814 759.047C460.814 770.989 460.814 775.765 458.426 785.317C456.038 794.871 467.98 794.871 477.532 794.871C487.087 794.871 494.251 790.095 491.862 782.928C489.474 775.765 484.698 754.268 484.698 744.716C484.698 735.162 489.474 696.948 491.862 668.29C494.253 639.634 506.579 596.713 510.971 570.372Z" fill="white" stroke="black" stroke-width="5" stroke-miterlimit="10"/>
<path d="M510.971 570.372C518.135 527.382 522.914 467.673 518.135 436.627C513.36 405.578 506.192 391.249 506.192 391.249C506.192 391.249 476.219 398.164 454.783 398.402C431.081 398.164 401.106 391.249 401.106 391.249C401.106 391.249 396.33 405.579 382 417.52C364.693 431.944 312.739 450.956 286.467 474.839C260.196 498.721 248.254 527.382 253.031 534.546C257.807 541.71 264.972 544.1 296.02 541.71C327.069 539.323 393.941 513.05 408.271 513.05C422.601 513.05 432.153 522.604 434.541 532.156C436.929 541.71 441.706 567.981 446.484 575.145C451.259 582.31 456.038 577.534 456.038 570.37C456.038 568.068 456.038 560.328 455.958 550.419L456.038 551.663C456.038 551.663 458.426 632.465 458.426 651.572C458.426 670.679 460.814 747.104 460.814 759.047C460.814 770.989 460.814 775.765 458.426 785.317C456.038 794.871 467.98 794.871 477.532 794.871C487.087 794.871 494.251 790.095 491.862 782.928C489.474 775.765 484.698 754.268 484.698 744.716C484.698 735.162 489.474 696.948 491.862 668.29C494.253 639.634 506.579 596.713 510.971 570.372Z" stroke="black" stroke-width="5" stroke-miterlimit="10"/>
<path d="M305.575 503.5C319.905 491.557 348.565 486.781 374.836 486.781C401.107 486.781 422.602 486.781 432.157 484.393C441.71 482.004 449.92 479.903 453.198 484.393C458.426 491.557 456.038 496.335 456.038 515.442C456.038 534.548 455.981 553.506 455.981 553.506" stroke="black" stroke-width="5" stroke-miterlimit="10"/>
<path d="M418.167 219.91C432.155 231.231 453.649 231.231 453.649 231.231C453.649 231.231 475.339 232.474 490.765 219.91" stroke="black" stroke-width="5" stroke-miterlimit="10"/>
<path d="M434.15 153.517C429.854 145.013 434.187 137.048 433.08 126.628C431.317 110.082 452.083 94.8357 470.579 96.7668C495.001 99.3234 492.069 186.863 477.812 187.703C469.368 188.202 454.393 180.4 443.919 165.933C440.549 161.283 434.15 153.517 434.15 153.517Z" fill="white" stroke="black" stroke-width="5" stroke-miterlimit="10"/>
<path d="M434.15 153.517C429.854 145.013 434.187 137.048 433.08 126.628C431.317 110.082 452.083 94.8357 470.579 96.7668C495.001 99.3234 492.069 186.863 477.812 187.703C469.368 188.202 454.393 180.4 443.919 165.933C440.549 161.283 434.15 153.517 434.15 153.517Z" stroke="black" stroke-width="5" stroke-miterlimit="10"/>
<path d="M480.345 107.458C479.298 122.792 466.683 150.023 447.659 144.068C426.271 137.372 434.486 150.746 435.99 154.906C437.494 159.067 447.651 167.28 445.435 168.334C443.221 169.393 415.952 155.716 414.074 133.444C412.192 111.172 421.112 101.12 432.919 94.8527C444.721 88.5853 463.557 88.5114 474.663 96.1309C485.775 103.749 480.345 107.458 480.345 107.458Z" fill="black" stroke="black" stroke-width="5" stroke-miterlimit="10"/>
<path d="M460.257 732.387C467.979 735.165 481.563 734.39 485.519 732.387" stroke="black" stroke-width="5" stroke-miterlimit="10"/>
<path d="M410.054 486.474C413.049 491.56 414.222 508.382 410.054 513.106" stroke="black" stroke-width="5" stroke-miterlimit="10"/>
<path d="M455.343 141C449.799 135.05 452.53 138.31 455.343 135.786C458.16 133.258 463.632 131.66 466.543 127.276C469.452 122.893 460.673 114.707 460.965 109.436C461.259 104.165 468.415 101.235 471.028 104.237C473.636 107.242 473.46 102.416 470.871 98.829C468.497 95.5403 456.992 79.5727 434.229 91.1529C415.841 100.508 407.972 111.12 410.682 132.247C413.396 153.38 428.167 159.444 418.243 176.02C405.97 196.526 386.483 184.6 371.031 212.316C365.124 222.905 370.797 245.302 379.999 257.157C389.879 269.89 408.672 278.76 418.088 278.616C440.753 278.277 442.683 269.456 442.683 269.456L435.243 238.602C435.243 238.602 446.518 173.538 450.615 159.824C454.713 146.112 455.343 141 455.343 141Z" fill="black" stroke="black" stroke-width="5" stroke-miterlimit="10"/>
</svg>
